X:60
T: Zug der Hilfstruppen nach Portugal
N: A0413
O: Europa, Mitteleuropa, Deutschland
N: Hainhofer Lautenbuch I (1603) Bl. 25.
R: Romanze, Ballade, Lied, Kriegslied
M: 4/2
L: 1/4
K: G
G2 | G2G2F2G2 | A3BG2
G2 | F2E2F2G2 | A3GG2z
c | B2A2G2=F2 | E4C4 |
D2D2E2F2 | G4z2

@@@ Tune index: 373
